src/svg/server.svg

<svg height="16" width="12" xmlns="http://www.w3.org/2000/svg" viewBox="0 0 12 16">
  <path d="M11 6H1c-0.55 0-1 0.45-1 1v2c0 0.55 0.45 1 1 1h10c0.55 0 1-0.45 1-1V7c0-0.55-0.45-1-1-1zM2 9H1V7h1v2z m2 0h-1V7h1v2z m2 0h-1V7h1v2z m2 0h-1V7h1v2zM11 1H1C0.45 1 0 1.45 0 2v2c0 0.55 0.45 1 1 1h10c0.55 0 1-0.45 1-1V2c0-0.55-0.45-1-1-1zM2 4H1V2h1v2z m2 0h-1V2h1v2z m2 0h-1V2h1v2z m2 0h-1V2h1v2z m3-1h-1v-1h1v1z m0 8H1c-0.55 0-1 0.45-1 1v2c0 0.55 0.45 1 1 1h10c0.55 0 1-0.45 1-1V12c0-0.55-0.45-1-1-1zM2 14H1V12h1v2z m2 0h-1V12h1v2z m2 0h-1V12h1v2z m2 0h-1V12h1v2z" />
</svg>

<?xml version="1.0" encoding="UTF-8" standalone="no"?>
<svg width="12px" height="16px" viewBox="0 0 12 16" version="1.1" xmlns="http://www.w3.org/2000/svg" xmlns:xlink="http://www.w3.org/1999/xlink">
    <!-- Generator: Sketch 3.7.1 (28215) - http://www.bohemiancoding.com/sketch -->
    <title>server</title>
    <desc>Created with Sketch.</desc>
    <defs></defs>
    <g id="Octicons" stroke="none" stroke-width="1" fill="none" fill-rule="evenodd">
        <g id="server" fill="#000000">
            <path d="M11,6 L1,6 C0.45,6 0,6.45 0,7 L0,9 C0,9.55 0.45,10 1,10 L11,10 C11.55,10 12,9.55 12,9 L12,7 C12,6.45 11.55,6 11,6 L11,6 Z M2,9 L1,9 L1,7 L2,7 L2,9 L2,9 Z M4,9 L3,9 L3,7 L4,7 L4,9 L4,9 Z M6,9 L5,9 L5,7 L6,7 L6,9 L6,9 Z M8,9 L7,9 L7,7 L8,7 L8,9 L8,9 Z M11,1 L1,1 C0.45,1 0,1.45 0,2 L0,4 C0,4.55 0.45,5 1,5 L11,5 C11.55,5 12,4.55 12,4 L12,2 C12,1.45 11.55,1 11,1 L11,1 Z M2,4 L1,4 L1,2 L2,2 L2,4 L2,4 Z M4,4 L3,4 L3,2 L4,2 L4,4 L4,4 Z M6,4 L5,4 L5,2 L6,2 L6,4 L6,4 Z M8,4 L7,4 L7,2 L8,2 L8,4 L8,4 Z M11,3 L10,3 L10,2 L11,2 L11,3 L11,3 Z M11,11 L1,11 C0.45,11 0,11.45 0,12 L0,14 C0,14.55 0.45,15 1,15 L11,15 C11.55,15 12,14.55 12,14 L12,12 C12,11.45 11.55,11 11,11 L11,11 Z M2,14 L1,14 L1,12 L2,12 L2,14 L2,14 Z M4,14 L3,14 L3,12 L4,12 L4,14 L4,14 Z M6,14 L5,14 L5,12 L6,12 L6,14 L6,14 Z M8,14 L7,14 L7,12 L8,12 L8,14 L8,14 Z" id="Shape"></path>
        </g>
    </g>
</svg>
